Origami/64x64/apps/KoboDeluxe.svg

<svg width="64" height="64" version="1.1" viewBox="0 0 64 64" xmlns="http://www.w3.org/2000/svg">
 <path d="m32.032246 6.0051038c-1.870794-0.080544-3.634392 0.797426-4.570744 2.275444l-23.285769 36.751644c-0.9055116 3.555952 1.78671 6.200932 5.813346 8.140482 7.5530094 3.638138 19.801131 4.794254 21.806833 4.824982 3.307078 0.07036 13.328492-1.445434 20.483644-4.288422 5.442446-2.162474 9.226574-5.092808 7.13621-8.677042l-23.285772-36.751644c-0.851824-1.3446134-2.395828-2.2019848-4.097748-2.275444z" style="opacity:.2"/>
 <path d="m32.032246 5.0051034c-1.870794-0.080544-3.634392 0.797426-4.570744 2.275444l-23.285769 36.751645c-0.9055116 3.555952 1.78671 6.200932 5.813346 8.140482 7.5530094 3.638138 19.801131 4.794254 21.806833 4.824982 3.307078 0.07036 13.328492-1.445434 20.483644-4.288422 5.442446-2.162474 9.226574-5.092808 7.13621-8.677042l-23.285772-36.751645c-0.851824-1.3446134-2.395828-2.2019848-4.097748-2.275444z" style="fill:#8e8e8e"/>
 <path d="m32.09375 6.0078124c-1.860188-0.0637298-3.610992 0.8079818-4.542968 2.2734376l-3.476564 5.46875c-0.023946 0.258062-0.074218 0.508194-0.074218 0.773438v39.792968c0 4.263542 4.585002 5.683594 8 5.683594 3.415002 0 8-1.420052 8-5.683594v-39.792968c0-0.132492-0.0168-0.260101-0.02344-0.390626l-3.722654-5.851562c-0.76301-1.199788-2.089674-1.9782514-3.578124-2.1914062-0.19514-0.02562-0.382252-0.072812-0.582032-0.0820314z" style="opacity:.2"/>
 <path d="m32.03125 5.0039062c-1.870794-0.080544-3.63396 0.7993258-4.570312 2.2773438l-3.460938 5.460938v40.574218c0 4.263542 4.585002 5.683594 8 5.683594 3.415002 0 8-1.420052 8-5.683594v-39.925781l-3.871094-6.109375c-0.851824-1.3446134-2.395736-2.2038846-4.097656-2.2773438z" style="fill:#686868"/>
 <rect x="12" y="24" width="6" height="34" rx="4.5" ry="4.25" style="opacity:.2"/>
 <path d="m32.033203 5.0058594c-1.870794-0.080544-3.635914 0.7973726-4.572265 2.2753906l-23.285157 36.75c-0.1677967 0.658939-0.2113662 1.287081-0.1464843 1.884766 0.0263882-0.289012 0.0695734-0.582736 0.1464843-0.884766l23.285157-36.75c0.936351-1.478018 2.701471-2.3559346 4.572265-2.2753906 1.70192 0.0734592 3.245832 0.9307772 4.097656 2.2753906l23.285157 36.75c0.30083 0.515817 0.467044 1.017467 0.537109 1.505859 0.128362-0.795209-0.026937-1.631094-0.537109-2.505859l-23.285157-36.75c-0.851824-1.3446134-2.395736-2.2019314-4.097656-2.2753906z" style="fill:#ffffff;opacity:.1"/>
 <rect x="12" y="23" width="6" height="34" rx="4.5" ry="4.25" style="fill:#afafb1"/>
 <ellipse cx="32" cy="41.833" rx="7" ry="8.167" style="opacity:.2"/>
 <ellipse cx="32" cy="40.833" rx="7" ry="8.167" style="fill:#64b0ff"/>
 <rect x="46" y="24" width="6" height="34" rx="4.5" ry="4.25" style="opacity:.2"/>
 <rect x="46" y="23" width="6" height="34" rx="4.5" ry="4.25" style="fill:#afafb1"/>
 <path d="m32 32.666016a7 8.166667 0 0 0 -7 8.167968 7 8.166667 0 0 0 0.017578 0.576172 7 8.166667 0 0 1 6.982422 -7.74414 7 8.166667 0 0 1 6.982422 7.585937 7 8.166667 0 0 0 0.017578 -0.417969 7 8.166667 0 0 0 -7 -8.167968z" style="fill:#ffffff;opacity:.2"/>
 <path d="m15 23c-1.662 0-3 1.8955-3 4.25v1c0-2.3545 1.338-4.25 3-4.25s3 1.8955 3 4.25v-1c0-2.3545-1.338-4.25-3-4.25z" style="fill:#ffffff;opacity:.2"/>
 <path d="m49 23c-1.662 0-3 1.8955-3 4.25v1c0-2.3545 1.338-4.25 3-4.25s3 1.8955 3 4.25v-1c0-2.3545-1.338-4.25-3-4.25z" style="fill:#ffffff;opacity:.2"/>
</svg>

<svg xmlns="http://www.w3.org/2000/svg" width="64" height="64" version="1.1" viewBox="0 0 64 64">
 <path style="opacity:0.2" d="m 32.032246,6.0051038 c -1.870794,-0.080544 -3.634392,0.797426 -4.570744,2.275444 L 4.1757326,45.032192 c -0.9055116,3.555952 1.78671,6.200932 5.813346,8.140482 7.5530094,3.638138 19.8011314,4.794254 21.8068334,4.824982 3.307078,0.07036 13.328492,-1.445434 20.483644,-4.288422 5.442446,-2.162474 9.226574,-5.092808 7.13621,-8.677042 L 36.129994,8.2805478 C 35.27817,6.9359344 33.734166,6.078563 32.032246,6.0051038 Z"/>
 <path style="fill:#8e8e8e" d="m 32.032246,5.0051034 c -1.870794,-0.080544 -3.634392,0.797426 -4.570744,2.275444 L 4.1757326,44.032192 c -0.9055116,3.555952 1.78671,6.200932 5.813346,8.140482 7.5530094,3.638138 19.8011314,4.794254 21.8068334,4.824982 3.307078,0.07036 13.328492,-1.445434 20.483644,-4.288422 5.442446,-2.162474 9.226574,-5.092808 7.13621,-8.677042 L 36.129994,7.2805474 C 35.27817,5.935934 33.734166,5.0785626 32.032246,5.0051034 Z"/>
 <path style="opacity:0.2" d="M 32.09375,6.0078124 C 30.233562,5.9440826 28.482758,6.8157942 27.550782,8.28125 L 24.074218,13.75 C 24.050272,14.008062 24,14.258194 24,14.523438 V 54.316406 C 24,58.579948 28.585002,60 32,60 c 3.415002,0 8,-1.420052 8,-5.683594 V 14.523438 c 0,-0.132492 -0.0168,-0.260101 -0.02344,-0.390626 L 36.253906,8.28125 C 35.490896,7.081462 34.164232,6.3029986 32.675782,6.0898438 32.480642,6.0642238 32.29353,6.0170318 32.09375,6.0078124 Z"/>
 <path style="fill:#686868" d="M 32.03125,5.0039062 C 30.160456,4.9233622 28.39729,5.803232 27.460938,7.28125 L 24,12.742188 V 53.316406 C 24,57.579948 28.585002,59 32,59 c 3.415002,0 8,-1.420052 8,-5.683594 V 13.390625 L 36.128906,7.28125 C 35.277082,5.9366366 33.73317,5.0773654 32.03125,5.0039062 Z"/>
 <rect style="opacity:0.2" width="6" height="34" x="12" y="24" rx="4.5" ry="4.25"/>
 <path style="opacity:0.1;fill:#ffffff" d="M 32.033203 5.0058594 C 30.162409 4.9253154 28.397289 5.803232 27.460938 7.28125 L 4.1757812 44.03125 C 4.0079845 44.690189 3.964415 45.318331 4.0292969 45.916016 C 4.0556851 45.627004 4.0988703 45.33328 4.1757812 45.03125 L 27.460938 8.28125 C 28.397289 6.803232 30.162409 5.9253154 32.033203 6.0058594 C 33.735123 6.0793186 35.279035 6.9366366 36.130859 8.28125 L 59.416016 45.03125 C 59.716846 45.547067 59.88306 46.048717 59.953125 46.537109 C 60.081487 45.7419 59.926188 44.906015 59.416016 44.03125 L 36.130859 7.28125 C 35.279035 5.9366366 33.735123 5.0793186 32.033203 5.0058594 z"/>
 <rect style="fill:#afafb1" width="6" height="34" x="12" y="23" rx="4.5" ry="4.25"/>
 <ellipse style="opacity:0.2" cx="32" cy="41.833" rx="7" ry="8.167"/>
 <ellipse style="fill:#64b0ff" cx="32" cy="40.833" rx="7" ry="8.167"/>
 <rect style="opacity:0.2" width="6" height="34" x="46" y="24" rx="4.5" ry="4.25"/>
 <rect style="fill:#afafb1" width="6" height="34" x="46" y="23" rx="4.5" ry="4.25"/>
 <path style="opacity:0.2;fill:#ffffff" d="M 32 32.666016 A 7 8.166667 0 0 0 25 40.833984 A 7 8.166667 0 0 0 25.017578 41.410156 A 7 8.166667 0 0 1 32 33.666016 A 7 8.166667 0 0 1 38.982422 41.251953 A 7 8.166667 0 0 0 39 40.833984 A 7 8.166667 0 0 0 32 32.666016 z"/>
 <path style="opacity:0.2;fill:#ffffff" d="M 15 23 C 13.338 23 12 24.8955 12 27.25 L 12 28.25 C 12 25.8955 13.338 24 15 24 C 16.662 24 18 25.8955 18 28.25 L 18 27.25 C 18 24.8955 16.662 23 15 23 z"/>
 <path style="opacity:0.2;fill:#ffffff" d="M 49 23 C 47.338 23 46 24.8955 46 27.25 L 46 28.25 C 46 25.8955 47.338 24 49 24 C 50.662 24 52 25.8955 52 28.25 L 52 27.25 C 52 24.8955 50.662 23 49 23 z"/>
</svg>
